X: 39814
T: There Was An Old Man Who Lived In The Woods
R: polka
M: 2/4
K: Adorian
ea|:ag ef|g2 ea|ab ag|ed ea|
ag ef|g2 ef|gf ed|1 cB Aa:|2 BG AB||
|:cd ef|g2 AB|cd ed|BG AB|
cd ef|g2 ef|gf ed|1 BG AB:|2 cB Aa||

